<?xml version="1.0" encoding="UTF-8"?>
<map version="1.10" tiledversion="1.12.2" orientation="orthogonal" renderorder="right-down" width="24" height="24" tilewidth="32" tileheight="32" infinite="0" nextlayerid="6" nextobjectid="1">
 <tileset firstgid="1" source="Nature RPG Tileset.tsx"/>
 <layer id="1" name="Grow" width="24" height="24">
  <data encoding="csv">
41,41,41,41,41,41,41,41,41,41,41,41,41,41,41,41,41,41,41,41,41,41,41,41,
41,41,41,41,41,41,41,41,41,41,41,41,41,41,41,41,41,41,41,41,41,41,41,41,
41,41,41,41,41,41,41,41,41,41,41,41,41,41,41,41,41,41,41,41,41,41,41,41,
41,41,41,41,41,41,41,41,41,41,41,41,41,41,41,41,41,41,41,41,41,41,41,41,
41,41,41,41,41,41,41,41,41,41,41,41,41,41,41,41,41,41,41,41,41,41,41,41,
41,41,41,41,41,41,41,41,41,41,41,41,41,41,41,41,41,41,41,41,41,41,41,41,
41,41,41,41,41,41,41,41,41,41,41,41,41,41,41,41,41,41,41,41,41,41,41,41,
41,41,41,41,41,41,41,41,41,41,41,41,41,41,41,41,41,41,41,41,41,41,41,41,
41,41,41,41,41,41,41,41,41,41,41,41,41,41,41,41,41,41,41,41,41,41,41,41,
41,41,41,41,41,41,41,41,41,41,41,41,41,41,41,41,41,41,41,41,41,41,41,41,
41,41,41,41,41,41,41,41,41,41,41,41,41,41,41,41,41,41,41,41,41,41,41,41,
41,41,41,41,41,41,41,41,41,41,41,41,41,41,41,41,41,41,41,41,41,41,41,41,
41,41,41,41,41,41,41,41,41,41,41,41,41,41,41,41,41,41,41,41,41,41,41,41,
41,41,41,41,41,41,41,41,41,41,41,41,41,41,41,41,41,41,41,41,41,41,41,41,
41,41,41,41,41,41,41,41,41,41,41,41,41,41,41,41,41,41,41,41,41,41,41,41,
41,41,41,41,41,41,41,41,41,41,41,41,41,41,41,41,41,41,41,41,41,41,41,41,
41,41,41,41,41,41,41,41,41,41,41,41,41,41,41,41,41,41,41,41,41,41,41,41,
41,41,41,41,41,41,41,41,41,41,41,41,41,41,41,41,41,41,41,41,41,41,41,41,
41,41,41,41,41,41,41,41,41,41,41,41,41,41,41,41,41,41,41,41,41,41,41,41,
41,41,41,41,41,41,41,41,41,41,41,41,41,41,41,41,41,41,41,41,41,41,41,41,
41,41,41,41,41,41,41,41,41,41,41,41,41,41,41,41,41,41,41,41,41,41,41,41,
41,41,41,41,41,41,41,41,41,41,41,41,41,41,41,41,41,41,41,41,41,41,41,41,
41,41,41,41,41,41,41,41,41,41,41,41,41,41,41,41,41,41,41,41,41,41,41,41,
41,41,41,41,41,41,41,41,41,41,41,41,41,41,41,41,41,41,41,41,41,41,41,41
</data>
 </layer>
 <layer id="2" name="Khak" width="24" height="24">
  <data encoding="csv">
0,0,0,0,0,0,0,0,0,0,0,0,0,0,0,0,0,0,0,0,0,0,0,0,
0,0,0,0,0,0,0,0,0,0,0,0,0,0,0,0,0,0,0,0,0,0,0,0,
0,0,0,0,0,0,0,0,0,0,0,0,0,0,0,0,0,0,0,0,0,0,0,0,
0,0,0,0,0,0,0,0,0,0,0,0,0,0,0,0,0,0,0,0,0,0,0,0,
0,0,0,0,0,0,0,0,0,0,0,0,0,0,0,0,0,0,0,0,0,0,0,0,
0,0,0,0,0,0,0,0,0,0,0,0,0,0,0,0,0,0,0,0,0,0,0,0,
0,0,0,0,0,0,0,0,0,0,0,0,126,127,128,0,0,0,0,0,0,0,0,0,
0,0,0,0,0,0,0,0,0,0,0,0,146,147,148,0,0,0,0,0,0,0,0,0,
0,0,0,0,0,0,0,0,0,0,0,0,146,147,148,0,0,0,0,0,0,0,0,0,
0,0,0,0,0,126,127,127,127,127,127,127,147,147,147,127,128,0,0,0,0,0,0,0,
0,0,0,0,0,146,147,147,147,147,147,147,147,147,147,147,148,0,0,0,0,0,0,0,
0,0,0,0,0,166,167,167,147,147,147,147,147,147,148,0,0,0,0,0,0,0,0,0,
0,0,0,0,0,0,0,0,146,147,147,147,147,147,148,0,0,0,0,0,0,0,0,0,
0,0,0,0,0,0,0,0,146,147,147,147,147,147,148,0,0,0,0,0,0,0,0,0,
0,0,0,0,0,0,0,0,146,147,147,167,167,167,168,0,0,0,0,0,0,0,0,0,
0,0,0,0,0,0,0,0,146,147,148,0,0,0,0,0,0,0,0,0,0,0,0,0,
0,0,0,0,0,0,0,0,166,167,168,0,0,0,0,0,0,0,0,0,0,0,0,0,
0,0,0,0,0,0,0,0,0,0,0,0,0,0,0,0,0,0,0,0,0,0,0,0,
0,0,0,0,0,0,0,0,0,0,0,0,0,0,0,0,0,0,0,0,0,0,0,0,
0,0,0,0,0,0,0,0,0,0,0,0,0,0,0,0,0,0,0,0,0,0,0,0,
0,0,0,0,0,0,0,0,0,0,0,0,0,0,0,0,0,0,0,0,0,0,0,0,
0,0,0,0,0,0,0,0,0,0,0,0,0,0,0,0,0,0,0,0,0,0,0,0,
0,0,0,0,0,0,0,0,0,0,0,0,0,0,0,0,0,0,0,0,0,0,0,0,
0,0,0,0,0,0,0,0,0,0,0,0,0,0,0,0,0,0,0,0,0,0,0,0
</data>
 </layer>
 <layer id="3" name="Marz" width="24" height="24">
  <data encoding="csv">
152,152,152,152,152,152,152,152,152,152,152,152,152,152,152,152,152,152,152,152,152,152,152,152,
152,66,67,67,67,67,67,67,67,67,67,67,67,67,67,67,67,67,67,67,67,67,68,152,
152,86,0,0,0,0,0,0,0,0,0,0,0,0,0,0,0,0,0,0,0,0,88,152,
152,86,0,0,0,0,0,0,0,0,0,0,0,0,0,0,0,0,0,0,0,0,88,152,
152,86,0,0,0,0,0,0,0,0,0,0,0,0,0,0,0,0,0,0,0,0,88,152,
152,86,0,0,0,0,0,0,0,0,0,0,0,0,0,0,0,0,0,0,0,0,88,152,
152,86,0,0,0,0,0,0,0,0,0,0,0,0,0,0,0,0,0,0,0,0,88,152,
152,86,0,0,0,0,0,0,0,0,0,0,0,0,0,0,0,0,0,0,0,0,88,152,
152,86,0,0,0,0,0,0,0,0,0,0,0,0,0,0,0,0,0,0,0,0,88,152,
152,86,0,0,0,0,0,0,0,0,0,0,0,0,0,0,0,0,0,0,0,0,88,152,
152,86,0,0,0,0,0,0,0,0,0,0,0,0,0,0,0,0,0,0,0,0,88,152,
152,86,0,0,0,0,0,0,0,0,0,0,0,0,0,0,0,0,0,0,0,0,88,152,
152,86,0,0,0,0,0,0,0,0,0,0,0,0,0,0,0,0,0,0,0,0,88,152,
152,86,0,0,0,0,0,0,0,0,0,0,0,0,0,0,0,0,0,0,0,0,88,152,
152,86,0,0,0,0,0,0,0,0,0,0,0,0,0,0,0,0,0,0,0,0,88,152,
152,86,0,0,0,0,0,0,0,0,0,0,0,0,0,0,0,0,0,0,0,0,88,152,
152,86,0,0,0,0,0,0,0,0,0,0,0,0,0,0,0,0,0,0,0,0,88,152,
152,86,0,0,0,0,0,0,0,0,0,0,0,0,0,0,0,0,0,0,0,0,88,152,
152,86,0,0,0,0,0,0,0,0,0,0,0,0,0,0,0,0,0,0,0,0,88,152,
152,86,0,0,0,0,0,0,0,0,0,0,0,0,0,0,0,0,0,0,0,0,88,152,
152,86,0,0,0,0,0,0,0,0,0,0,0,0,0,0,0,0,0,0,0,0,88,152,
152,86,0,0,0,0,0,0,0,0,0,0,0,0,0,0,0,0,0,0,0,0,88,152,
152,106,107,107,107,107,107,107,107,107,107,107,107,107,107,107,107,107,107,107,107,107,108,152,
152,152,152,152,152,152,152,152,152,152,152,152,152,152,152,152,152,152,152,152,152,152,152,152
</data>
 </layer>
</map>
